X: 1
T:The Trip to Brighton
M:2/4
L:1/16
K:G
D2 |\
GABc d2g2 | d2BA G2AB | c2A2 B2G2 | F2 D4F2 |\
E2C2 C2E2 | c2E2 E2c2 | Bcd2 D2F2 | G6 :|
g2 |\
g2d2 d2B2 | B2G2 Bcd2 | c2 A4a2 | a2A2 ABc2 |\
B2G2 c2A2 | d2B2 g2g2 | fga2 A2^c2 | d6 ||
g2 |\
g2d2 d2B2 | B2G2 Bcd2 | c2 A4a2 | a2A2 ABc2 |\
B2G2 c2A2 | d2B2 g2c2 | Bcd2 D2F2 | G6 |]
